assets/img/braze_icons/bar-chart-12.svg

<svg fill="none" height="24" viewBox="0 0 24 24" width="24" xmlns="http://www.w3.org/2000/svg"><g clip-rule="evenodd" fill="#801ed7" fill-rule="evenodd"><path d="m3.56811 10h.0319.79999.0319c.25238-.00003.49818-.00005.70634.017.22859.0186.49832.0627.76975.201.37632.1917.68228.4977.87403.874.1383.2714.18236.5412.20104.7698.01701.2081.01698.4539.01695.7063v.0319 6.8319c.00003.2524.00006.4982-.01695.7063-.01868.2286-.06274.4984-.20104.7698-.19175.3763-.49771.6823-.87403.874-.27143.1383-.54116.1824-.76976.2011-.20816.017-.45396.0169-.70634.0169h-.86377c-.25238 0-.49818.0001-.70634-.0169-.2286-.0187-.49833-.0628-.76976-.2011-.37632-.1917-.68228-.4977-.87403-.874-.1383-.2714-.18236-.5412-.20104-.7698-.017007-.2081-.016977-.4539-.01695-.7063l.00001-6.8319c0-.0106-.00001-.0213-.00001-.0319-.000027-.2524-.000057-.4982.01695-.7063.01868-.2286.06274-.4984.20104-.7698.19175-.3763.49771-.6823.87403-.874.27143-.1383.54116-.1824.76976-.201.20815-.01705.45394-.01703.70633-.017z"/><path d="m11.5681 6c.0106.00001.0213.00001.0319.00001h.8c.0107 0 .0213 0 .0319-.00001.2524-.00003.4982-.00006.7063.01695.2286.01868.4984.06275.7698.20104.3763.19175.6823.49771.874.87404.1383.27142.1824.54115.2011.76975.017.20816.0169.45395.0169.70633v.0319 10.83189c0 .2524.0001.4982-.0169.7063-.0187.2286-.0628.4984-.2011.7698-.1917.3763-.4977.6823-.874.874-.2714.1383-.5412.1824-.7698.2011-.2081.017-.4539.0169-.7063.0169h-.8638c-.2524 0-.4982.0001-.7063-.0169-.2286-.0187-.4983-.0628-.7698-.2011-.37629-.1917-.68225-.4977-.874-.874-.13829-.2714-.18236-.5412-.20104-.7698-.01701-.2081-.01698-.4539-.01695-.7063l.00001-10.83189c0-.01064-.00001-.02128-.00001-.0319-.00003-.25238-.00006-.49817.01695-.70633.01868-.2286.06275-.49833.20104-.76975.19175-.37633.49771-.68229.874-.87404.2715-.13829.5412-.18236.7698-.20104.2081-.017.4539-.01698.7063-.01695z"/><path d="m19.5681 2c.0107 0 .0213.00001.0319.00001h.8c.0107 0 .0213-.00001.0319-.00001.2524-.00003.4982-.00006.7064.01695.2285.01868.4983.06274.7697.20104.3763.19175.6823.49771.874.87403.1383.27143.1824.54116.2011.76976.017.20815.017.45395.0169.70633v.0319 14.83189c.0001.2524.0001.4982-.0169.7063-.0187.2286-.0628.4984-.2011.7698-.1917.3763-.4977.6823-.874.874-.2714.1383-.5412.1824-.7697.2011-.2082.017-.454.0169-.7064.0169h-.8638c-.2524 0-.4981.0001-.7063-.0169-.2286-.0187-.4983-.0628-.7698-.2011-.3763-.1917-.6822-.4977-.874-.874-.1383-.2714-.1824-.5412-.201-.7698-.017-.2081-.017-.4539-.017-.7063v-14.83189c0-.01065 0-.02128 0-.0319 0-.25239 0-.49818.017-.70633.0186-.2286.0627-.49833.201-.76976.1918-.37632.4977-.68228.874-.87403.2715-.1383.5412-.18236.7698-.20104.2082-.01701.4539-.01698.7063-.01695z"/></g></svg>

<svg width="24" height="24" viewBox="0 0 24 24" fill="none" xmlns="http://www.w3.org/2000/svg">
<path fill-rule="evenodd" clip-rule="evenodd" d="M3.56811 10C3.57873 10 3.58936 10 3.60001 10H4.4C4.41065 10 4.42128 10 4.4319 10C4.68428 9.99997 4.93008 9.99995 5.13824 10.017C5.36683 10.0356 5.63656 10.0797 5.90799 10.218C6.28431 10.4097 6.59027 10.7157 6.78202 11.092C6.92032 11.3634 6.96438 11.6332 6.98306 11.8618C7.00007 12.0699 7.00004 12.3157 7.00001 12.5681C7.00001 12.5787 7.00001 12.5894 7.00001 12.6L7.00001 19.4319C7.00004 19.6843 7.00007 19.9301 6.98306 20.1382C6.96438 20.3668 6.92032 20.6366 6.78202 20.908C6.59027 21.2843 6.28431 21.5903 5.90799 21.782C5.63656 21.9203 5.36683 21.9644 5.13823 21.9831C4.93007 22.0001 4.68427 22 4.43189 22H3.56812C3.31574 22 3.06994 22.0001 2.86178 21.9831C2.63318 21.9644 2.36345 21.9203 2.09202 21.782C1.7157 21.5903 1.40974 21.2843 1.21799 20.908C1.07969 20.6366 1.03563 20.3668 1.01695 20.1382C0.999943 19.9301 0.999973 19.6843 1 19.4319L1.00001 12.6C1.00001 12.5894 1 12.5787 1 12.5681C0.999973 12.3157 0.999943 12.0699 1.01695 11.8618C1.03563 11.6332 1.07969 11.3634 1.21799 11.092C1.40974 10.7157 1.7157 10.4097 2.09202 10.218C2.36345 10.0797 2.63318 10.0356 2.86178 10.017C3.06993 9.99995 3.31572 9.99997 3.56811 10Z" fill="#801ED7"/>
<path fill-rule="evenodd" clip-rule="evenodd" d="M11.5681 6C11.5787 6.00001 11.5894 6.00001 11.6 6.00001H12.4C12.4107 6.00001 12.4213 6.00001 12.4319 6C12.6843 5.99997 12.9301 5.99994 13.1382 6.01695C13.3668 6.03563 13.6366 6.0797 13.908 6.21799C14.2843 6.40974 14.5903 6.7157 14.782 7.09203C14.9203 7.36345 14.9644 7.63318 14.9831 7.86178C15.0001 8.06994 15 8.31573 15 8.56811C15 8.57873 15 8.58937 15 8.60001L15 19.4319C15 19.6843 15.0001 19.9301 14.9831 20.1382C14.9644 20.3668 14.9203 20.6366 14.782 20.908C14.5903 21.2843 14.2843 21.5903 13.908 21.782C13.6366 21.9203 13.3668 21.9644 13.1382 21.9831C12.9301 22.0001 12.6843 22 12.4319 22H11.5681C11.3157 22 11.0699 22.0001 10.8618 21.9831C10.6332 21.9644 10.3635 21.9203 10.092 21.782C9.71571 21.5903 9.40975 21.2843 9.218 20.908C9.07971 20.6366 9.03564 20.3668 9.01696 20.1382C8.99995 19.9301 8.99998 19.6843 9.00001 19.4319L9.00002 8.60001C9.00002 8.58937 9.00001 8.57873 9.00001 8.56811C8.99998 8.31573 8.99995 8.06994 9.01696 7.86178C9.03564 7.63318 9.07971 7.36345 9.218 7.09203C9.40975 6.7157 9.71571 6.40974 10.092 6.21799C10.3635 6.0797 10.6332 6.03563 10.8618 6.01695C11.0699 5.99995 11.3157 5.99997 11.5681 6Z" fill="#801ED7"/>
<path fill-rule="evenodd" clip-rule="evenodd" d="M19.5681 2C19.5788 2 19.5894 2.00001 19.6 2.00001L20.4 2.00001C20.4107 2.00001 20.4213 2 20.4319 2C20.6843 1.99997 20.9301 1.99994 21.1383 2.01695C21.3668 2.03563 21.6366 2.07969 21.908 2.21799C22.2843 2.40974 22.5903 2.7157 22.782 3.09202C22.9203 3.36345 22.9644 3.63318 22.9831 3.86178C23.0001 4.06993 23.0001 4.31573 23 4.56811C23 4.57873 23 4.58936 23 4.60001L23 19.4319C23.0001 19.6843 23.0001 19.9301 22.9831 20.1382C22.9644 20.3668 22.9203 20.6366 22.782 20.908C22.5903 21.2843 22.2843 21.5903 21.908 21.782C21.6366 21.9203 21.3668 21.9644 21.1383 21.9831C20.9301 22.0001 20.6843 22 20.4319 22H19.5681C19.3157 22 19.07 22.0001 18.8618 21.9831C18.6332 21.9644 18.3635 21.9203 18.092 21.782C17.7157 21.5903 17.4098 21.2843 17.218 20.908C17.0797 20.6366 17.0356 20.3668 17.017 20.1382C17 19.9301 17 19.6843 17 19.4319L17 4.60001C17 4.58936 17 4.57873 17 4.56811C17 4.31572 17 4.06993 17.017 3.86178C17.0356 3.63318 17.0797 3.36345 17.218 3.09202C17.4098 2.7157 17.7157 2.40974 18.092 2.21799C18.3635 2.07969 18.6332 2.03563 18.8618 2.01695C19.07 1.99994 19.3157 1.99997 19.5681 2Z" fill="#801ED7"/>
</svg>
